X:103
T:Flowers of Mason's Court. THO5.103, The
M:6/8
L:1/8
B:Thompson's Complete Collection of 200 Favourite Dances Vol.5
F:https://www.libraryofdance.org/manuals/1780c-Thompson-Compleat-5.pdf
Z:vmp. Peter Dunk 2024
Q:3/8=100
K:Bb
b|f2d B2d|(cAF) F2F|G2A BAG|FGE D2b|
f2d B2d|(cAF) F2F|(GAB) (c/d/e)c|B3-B2:|
B|(Bdf) (fdB)|(eg)g (gab)|(Bdf) (fdB)|(cAF) F2F|
(Bdf) (fdB)|(eg)g gab|agf gf=e|f3-f2b|
f2d B2d|(cAF) F2 F|G2G BAG|FGE D2b|
f2d B2d|(cAF) F2F|(GAB) (c/d/e)c|B3-B2||
W:
W:Right hands across left hands back again ./.
W:Hands three round with the 2nd Lady, the same with the 2nd Gent ./:
W:Lead doen the middle, up again and cast off :/.
W:lead through the bottom and cast up, Right and Left :/:

